SPARK17/help_fr/_apps/images/schematics/driven-pend.svg

<?xml version="1.0" encoding="UTF-8" standalone="no"?>
<svg
   xmlns:dc="http://purl.org/dc/elements/1.1/"
   xmlns:cc="http://creativecommons.org/ns#"
   xmlns:rdf="http://www.w3.org/1999/02/22-rdf-syntax-ns#"
   xmlns:svg="http://www.w3.org/2000/svg"
   xmlns="http://www.w3.org/2000/svg"
   xmlns:sodipodi="http://sodipodi.sourceforge.net/DTD/sodipodi-0.dtd"
   xmlns:inkscape="http://www.inkscape.org/namespaces/inkscape"
   version="1.1"
   id="driven-pend"
   width="576.31689"
   height="178.01424"
   viewBox="-6 -6 576.31689 178.01424"
   sodipodi:docname="driven-pend.svg"
   inkscape:version="0.92.1 r15371">
  <metadata
     id="metadata59">
    <rdf:RDF>
      <cc:Work
         rdf:about="">
        <dc:format>image/svg+xml</dc:format>
        <dc:type
           rdf:resource="http://purl.org/dc/dcmitype/StillImage" />
        <dc:title></dc:title>
      </cc:Work>
    </rdf:RDF>
  </metadata>
  <defs
     id="defs57" />
  <sodipodi:namedview
     pagecolor="#ffffff"
     bordercolor="#666666"
     borderopacity="1"
     objecttolerance="10"
     gridtolerance="10"
     guidetolerance="10"
     inkscape:pageopacity="0"
     inkscape:pageshadow="2"
     inkscape:window-width="1368"
     inkscape:window-height="746"
     id="namedview55"
     showgrid="false"
     fit-margin-top="0"
     fit-margin-left="0"
     fit-margin-right="0"
     fit-margin-bottom="0"
     inkscape:zoom="1.1507937"
     inkscape:cx="247"
     inkscape:cy="92"
     inkscape:window-x="0"
     inkscape:window-y="0"
     inkscape:window-maximized="1"
     inkscape:current-layer="driven-pend" />
  <desc
     id="desc2">
XCircuit Version 3.7
File &quot;driven-pend.ps&quot; Page 1
</desc>
  <g
     id="g52"
     style="stroke:#000000"
     transform="translate(-5,-4.9857575)">
    <path
       d="M 176,96 V 80 h 96 v 16 z"
       id="path4"
       inkscape:connector-curvature="0"
       style="fill:none;stroke:#000000;stroke-width:2;stroke-linecap:round;stroke-linejoin:bevel" />
    <path
       d="m 176,160 v 16 h 96 v -16 z"
       id="path6"
       inkscape:connector-curvature="0"
       style="fill:none;stroke:#000000;stroke-width:2;stroke-linecap:round;stroke-linejoin:bevel" />
    <path
       d="M 336,0 V 96"
       id="path8"
       inkscape:connector-curvature="0"
       style="fill:none;stroke:#000000;stroke-width:2;stroke-linecap:round;stroke-linejoin:bevel" />
    <path
       d="m 320,96 v 64 h 32 V 96 Z"
       id="path10"
       inkscape:connector-curvature="0"
       style="fill:none;stroke:#000000;stroke-width:2;stroke-linecap:round;stroke-linejoin:bevel" />
    <path
       d="m 320,0 h 32"
       id="path12"
       inkscape:connector-curvature="0"
       style="fill:none;stroke:#000000;stroke-width:2;stroke-linecap:round;stroke-linejoin:bevel" />
    <g
       transform="translate(16,80)"
       id="g18"
       style="fill:#000000">
      <text
         font-size="40"
         id="text16"
         style="font-size:40px;font-family:Helvetica;stroke:none">
        <tspan
           x="0"
           y="0"
           id="tspan14">SQ1</tspan>
      </text>
    </g>
    <g
       transform="translate(16,160)"
       id="g24"
       style="fill:#000000">
      <text
         font-size="40"
         id="text22"
         style="font-size:40px;font-family:Helvetica;stroke:none">
        <tspan
           x="0"
           y="0"
           id="tspan20">GND</tspan>
      </text>
    </g>
    <path
       d="m 0,112 v 64 h 112 v -64 z"
       id="path26"
       inkscape:connector-curvature="0"
       style="fill:none;stroke:#000000;stroke-width:2;stroke-linecap:round;stroke-linejoin:bevel" />
    <path
       d="M 176,160 H 112"
       id="path28"
       inkscape:connector-curvature="0"
       style="fill:none;stroke:#000000;stroke-width:2;stroke-linecap:round;stroke-linejoin:bevel" />
    <path
       d="M 0,32 V 96 H 112 V 32 Z"
       id="path30"
       inkscape:connector-curvature="0"
       style="fill:none;stroke:#000000;stroke-width:2;stroke-linecap:round;stroke-linejoin:bevel" />
    <path
       d="M 176,80 H 112"
       id="path32"
       inkscape:connector-curvature="0"
       style="fill:none;stroke:#000000;stroke-width:2;stroke-linecap:round;stroke-linejoin:bevel" />
    <g
       transform="translate(160,64)"
       id="g38"
       style="fill:#000000">
      <text
         font-size="40"
         id="text36"
         style="font-size:40px;font-family:Helvetica;stroke:none">
        <tspan
           x="0"
           y="0"
           id="tspan34">bobine</tspan>
      </text>
    </g>
    <g
       transform="translate(368,160)"
       id="g44"
       style="fill:#000000">
      <text
         font-size="40"
         id="text42"
         style="font-size:40px;font-family:Helvetica;stroke:none">
        <tspan
           x="0"
           y="0"
           id="tspan40">magnétique</tspan>
      </text>
    </g>
    <g
       transform="translate(368,112)"
       id="g50"
       style="fill:#000000">
      <text
         font-size="40"
         id="text48"
         style="font-size:40px;font-family:Helvetica;stroke:none">
        <tspan
           x="0"
           y="0"
           id="tspan46">Punaise</tspan>
      </text>
    </g>
  </g>
</svg>

<svg xmlns="http://www.w3.org/2000/svg"
   xmlns:xlink="http://www.w3.org/1999/xlink"
   version="1.1"
   id="driven-pend" width="100%" height="100%"  viewBox="-6 -6 504 182">
<desc>
XCircuit Version 3.7
File "driven-pend.ps" Page 1
</desc>
<g stroke="black">
<path d="M176,96 L176,80 272,80 272,96 z" fill="none" stroke-width="2" stroke-linejoin="bevel" stroke-linecap="round" stroke="#000000" />
<path d="M176,160 L176,176 272,176 272,160 z" fill="none" stroke-width="2" stroke-linejoin="bevel" stroke-linecap="round" stroke="#000000" />
<path d="M336,0 L336,96 " fill="none" stroke-width="2" stroke-linejoin="bevel" stroke-linecap="round" stroke="#000000" />
<path d="M320,96 L320,160 352,160 352,96 z" fill="none" stroke-width="2" stroke-linejoin="bevel" stroke-linecap="round" stroke="#000000" />
<path d="M320,0 L352,0 " fill="none" stroke-width="2" stroke-linejoin="bevel" stroke-linecap="round" stroke="#000000" />
<g transform="matrix(   1    0   -0    1  16  80)" fill="#000000" >
<text stroke="none" font-family="Helvetica" font-size="40" ><tspan x="0" y="0">SQ1</tspan>
</text></g>
<g transform="matrix(   1    0   -0    1  16 160)" fill="#000000" >
<text stroke="none" font-family="Helvetica" font-size="40" ><tspan x="0" y="0">GND</tspan>
</text></g>
<path d="M0,112 L0,176 112,176 112,112 z" fill="none" stroke-width="2" stroke-linejoin="bevel" stroke-linecap="round" stroke="#000000" />
<path d="M176,160 L112,160 " fill="none" stroke-width="2" stroke-linejoin="bevel" stroke-linecap="round" stroke="#000000" />
<path d="M0,32 L0,96 112,96 112,32 z" fill="none" stroke-width="2" stroke-linejoin="bevel" stroke-linecap="round" stroke="#000000" />
<path d="M176,80 L112,80 " fill="none" stroke-width="2" stroke-linejoin="bevel" stroke-linecap="round" stroke="#000000" />
<g transform="matrix(   1    0   -0    1 160  64)" fill="#000000" >
<text stroke="none" font-family="Helvetica" font-size="40" ><tspan x="0" y="0">COIL</tspan>
</text></g>
<g transform="matrix(   1    0   -0    1 368 160)" fill="#000000" >
<text stroke="none" font-family="Helvetica" font-size="40" ><tspan x="0" y="0">Magnet</tspan>
</text></g>
<g transform="matrix(   1    0   -0    1 368 112)" fill="#000000" >
<text stroke="none" font-family="Helvetica" font-size="40" ><tspan x="0" y="0">Button</tspan>
</text></g>
</g>
</svg>
